Gruvbox-Plus-Dark/panel/16/rhythmbox-panel.svg

<svg xmlns="http://www.w3.org/2000/svg" width="16" height="16" version="1">
 <defs>
  <style id="style2" type="text/css">
   .ColorScheme-Text { color:#ebdbb2; } .ColorScheme-Highlight { color:#458588; }
  </style>
 </defs>
 <path style="fill:currentColor;fill-rule:evenodd" class="ColorScheme-Text" d="M 2.5,15 C 1.669,15 1,14.331 1,13.5 V 2.5 C 1,1.669 1.669,1 2.5,1 H 10.5 C 11.331,1 12,1.669 12,2.5 V 13.5 C 12,14.331 11.331,15 10.5,15 Z M 6.5,13 C 8.433,13 10,11.433 10,9.5 10,7.567 8.433,6 6.5,6 4.5666,6 2.9995,7.567 3,9.5 2.9995,11.433 4.5666,13 6.5,13 Z M 6.5,11 C 5.672,11 5,10.328 5,9.5 5,8.672 5.672,8 6.5,8 7.328,8 8,8.672 8,9.5 8,10.328 7.328,11 6.5,11 Z M 4,5 C 4.5524,5 5,4.5522 5,4 5,3.4478 4.5524,3 4,3 3.4476,3 2.9998,3.4478 3,4 2.9998,4.5522 3.4476,5 4,5 Z M 9,5 C 9.552,5 10,4.5522 10,4 10,3.4478 9.552,3 9,3 8.448,3 8,3.4478 8,4 8,4.5522 8.448,5 9,5 Z"/>
</svg>

<svg width="16" height="16" version="1" xmlns="http://www.w3.org/2000/svg">
  <defs>
    <style id="current-color-scheme" type="text/css">.ColorScheme-Text { color:#ebdbb2; } .ColorScheme-Highlight { color:#458588; } .ColorScheme-NeutralText { color:#fe8019; } .ColorScheme-PositiveText { color:#689d6a; } .ColorScheme-NegativeText { color:#fb4934; }</style>
  </defs>
  <path class="ColorScheme-Text" d="m2.5 15c-0.831 0-1.5-0.669-1.5-1.5v-11c0-0.831 0.669-1.5 1.5-1.5h8c0.831 0 1.5 0.669 1.5 1.5v11c0 0.831-0.669 1.5-1.5 1.5zm4-2c1.933 0 3.5-1.567 3.5-3.5s-1.567-3.5-3.5-3.5c-1.933 0-3.5 1.567-3.5 3.5-5e-4 1.933 1.567 3.5 3.5 3.5zm0-2c-0.828 0-1.5-0.672-1.5-1.5s0.672-1.5 1.5-1.5 1.5 0.672 1.5 1.5-0.672 1.5-1.5 1.5zm-2.5-6c0.5524 0 1-0.4478 1-1s-0.4476-1-1-1-1 0.4478-1 1c-2e-4 0.5522 0.4476 1 1 1zm5 0c0.552 0 1-0.4478 1-1s-0.448-1-1-1-1 0.4478-1 1 0.448 1 1 1z" fill="currentColor"/>
</svg>
